X:273
T:Paidin O'Raifearta's
R:jig
H:Different version in D, see #62
H:Different version in G, see #318
D:Sharon Shannon
Z:id:hn-jig-273
M:6/8
K:A
EAc EAd | EAc BAF | EAc EAd | cBA ~F3 | 
EAc EAd | ~c3 efg | aec BAB |1 cAA AGF :|2 cAA Acd ||
|: ~e3 fdf | ~e3 ecd | ~e3 fga | ~A3 AFE |
~e3 fdf | ~e3 efg | aec BAB |1 cAA Acd :|2 cAA AGF ||
P:variations
|: EAc EAd | EAc BAF | EAc EAd | c2B AFD | 
EAc EAd | cBc efg | aed c2B |1 AcB AFD :|2 A3 Aaf ||
|: e3 ~f3 | efe ecd | ~e3 fga | ~A3 AFE |
~e3 ~f3 | e2c efg | aed c2B |1 A3 Aaf :|2 AcB AFD ||

